X:1
T:Buff and Blue
T:Buff and Blue
T:Robert Riddell
C:Robert Riddell
L:1/8
M:2/2
K:A
V:1 treble 
V:1
 A/B/ |: c>Bc>A [Fd]/[Fd]/[Fd] [Fd]2 | c>Bc>A [EB]/[EB]/[EB] [EB]2 | c>Bc>A [Fd]/[Fd]/[Fd] [Fd]2 | %4
 c>eB>c [AA]/[AA]/[AA] [AA]2 :: E>AE>A F>AF>A | d>cTe>c [EB]/[EB]/[EB] [EB]2 | E>AE>A F>AE>f | %8
 e<ATe>c [AA]/[AA]/[AA] [AA]2 :| %9

